X: 1
T: String Quartet in C Major opus 74 no 1 mvt 4
C: Franz Joseph Haydn
%%abc-version 2.0
%%abcx-abcm2ps-target-version 5.9.1 (29 Sep 2008)
%%abc-creator hum2abc beta
%%abcx-conversion-date 2021/02/14 14:38:37
%%abc-copyright Copyright (c) 1994, 2000 Center for Computer Assisted Research in the Humanities
%%abc-edited-by Frances Bennion
%%abcx-initial-encoding-date 1997/04/15
%%gracespace 0 6 6
%%humdrum-veritas 3059298906
%%humdrum-veritas-data 34001711
%%linebreak <none>
%%barnumbers 0
L: 1/8
M: 2/4
N: Derived from op74n1-04.krn
Q: "Finale: Vivace"
%%staves [1 2 3 4]
V: 1
V: 2
V: 3 clef=alto
V: 4 clef=bass
K: C
[V:1]z3 c [I:setbarnb1]|
[V:2]z3 E |
[V:3]z3 G |
[V:4]z2 zC, |
[V:1]Bc df |
[V:2]D2 zd |
[V:3]G,2 zG |
[V:4]G,2 zB,, |
[V:1]ed cg |
[V:2]c2 zE |
[V:3]G,2 z2 |
[V:4]C,2 z2 |
[V:1]fe dc |
[V:2]AG F^F |
[V:3]z4 |
[V:4]z4 |
[V:1]Be dc |
[V:2]Gc BE |
[V:3]z2 zG |
[V:4]z2 zC, |
[V:1]Bc df |
[V:2]D2 zd |
[V:3]G,2 zG |
[V:4]G,2 zB,, |
[V:1]ed c^g |
[V:2]c2 zE |
[V:3]G,2 z2 |
[V:4]C,2 z2 |
[V:1]ag fg |
[V:2]F^c dB |
[V:3]z4 |
[V:4]z4 |
[V:1]ef dG |
[V:2]cF GD |
[V:3]z2 zB, |
[V:4]z2 zF, |
[V:1]cB c^c |
[V:2]E2 z_B |
[V:3]C2 zE |
[V:4]E,2 zG, |
[V:1]de fd |
[V:2]A2 zA |
[V:3]F2 zF |
[V:4]F,2 zF, |
[V:1]BB B/c/d/B/ |
[V:2]Fz Fz |
[V:3]Dz Dz |
[V:4]G,z G,z |
[V:1]ce cc |
[V:2]E2 zE |
[V:3]E2 zG |
[V:4]C,2 zC |
[V:1]Bc df |
[V:2]FE DB |
[V:3]DE FD |
[V:4]DC B,G, |
[V:1]ed cg |
[V:2]cF EC |
[V:3]EB cG |
[V:4]CD EE, |
[V:1]fe dc |
[V:2]FG Ac |
[V:3]cB AD |
[V:4]A,G, F,^F, |
[V:1]Be dc |
[V:2]Bc BE |
[V:3]G^F GG |
[V:4]G,G,, G,C |
[V:1]Bc df |
[V:2]FE DB |
[V:3]DE FD |
[V:4]DC B,G, |
[V:1]ed c^g |
[V:2]cF Ec |
[V:3]EB ce |
[V:4]CD EE, |
[V:1]ag fg |
[V:2]A^c dG |
[V:3]ce Ad |
[V:4]F,A, DB, |
[V:1]ef dG |
[V:2]cd BD |
[V:3]GA GB, |
[V:4]CF, G,F, |
[V:1]cB c^c |
[V:2]GD C_B |
[V:3]CG, GE |
[V:4]E,F, E,G, |
[V:1]de fd |
[V:2]AG FA |
[V:3]FG AF |
[V:4]F,E, D,F, |
[V:1]Bc B/c/d/B/ |
[V:2]FF DD |
[V:3]DC DF |
[V:4]G,_A, G,G,, |
[V:1]cc cc' |
[V:2]EE Ec |
[V:3]EG cz |
[V:4]C,G,, C,,2 |
[V:1]e3 f |
[V:2]E3 F |
[V:3]zC ^G,A, |
[V:4]zC, ^G,,A,, |
[V:1]^fg gc' |
[V:2]^FG Gc |
[V:3]E,4 |
[V:4]E,,4 |
[V:1]e3 f |
[V:2]E3 F |
[V:3]zC ^G,A, |
[V:4]zC, ^G,,A,, |
[V:1]^fg gc |
[V:2]^FG GC |
[V:3]E,4 |
[V:4]E,,4 |
[V:1]^c2 de |
[V:2]^C2 DE |
[V:3]zG, F,z |
[V:4]zG,, F,,z |
[V:1]g2 fa |
[V:2]G2 FA |
[V:3]z^C Dz |
[V:4]z^C, D,z |
[V:1]c2 Bg |
[V:2]C2 B,G |
[V:3]z^F, G,z |
[V:4]z^F,, G,,z |
[V:1]f2 ez |
[V:2]F2 Ez |
[V:3]zB, Cc |
[V:4]zB,, C,z |
[V:1]zc' ^ga |
[V:2]z2 zc |
[V:3]E3 F |
[V:4]z4 |
[V:1]ed dz |
[V:2]cB Bz |
[V:3]^FG Gz |
[V:4]z2 zC |
[V:1]z4 |
[V:2]zc B/A/G/F/ |
[V:3]zG G/F/E/D/ |
[V:4]E,3 F, |
[V:1]z4 |
[V:2]ED Dz |
[V:3]CB, B,c |
[V:4]^F,G, G,z |
[V:1]zc' b/a/g/f/ |
[V:2]zg g/f/e/d/ |
[V:3]E3 F |
[V:4]z4 |
[V:1]ed de |
[V:2]cB BB |
[V:3]^FG G^G |
[V:4]z4 |
[V:1]dc cd |
[V:2]BA AA |
[V:3]Az z^F |
[V:4]z^G, A,z |
[V:1]cB Bg |
[V:2]AG Gz |
[V:3]Gz3 |
[V:4]z^F, G,z |
[V:1]B3 ^c |
[V:2]zD GE |
[V:3]z4 |
[V:4]zG, E,A, |
[V:1]ed dd |
[V:2]G^F Fz |
[V:3]z4 |
[V:4]D,2 z2 |
[V:1]^F3 G |
[V:2]zA, Cz |
[V:3]zC D,2- |
[V:4]D,,2 z2 |
[V:1]^G2 Ad |
[V:2]zA, ^Fz |
[V:3]D,C D,2- |
[V:4]D,,2 z2 |
[V:1]G3 A |
[V:2]zG, B,z |
[V:3]D,B, D,2- |
[V:4]D,,2 z2 |
[V:1]^A2 Bd |
[V:2]zG, Gz |
[V:3]D,B, D,2- |
[V:4]D,,2 z2 |
[V:1]A3 B |
[V:2]z^F AG |
[V:3]D,C ^F,G, |
[V:4]D,,2 z2 |
[V:1]d4 |
[V:2]^F4- |
[V:3]A,4- |
[V:4]D,,4- |
[V:1]c3 z |
[V:2]F3 G |
[V:3]A,3 z |
[V:4]D,,3 z |
[V:1]z2 z/d/e/^f/ |
[V:2]^FG Ac |
[V:3]z4 |
[V:4]z4 |
[V:1]g/a/b/c'/ d'/b/a/b/ |
[V:2]BG zd |
[V:3]z2 zG, |
[V:4]z4 |
[V:1]c'/b/a/g/ ^f/d/e/f/ |
[V:2]AB cB/A/ |
[V:3]^F,G, A,C |
[V:4]z4 |
[V:1]g/a/b/c'/ d'/b/a/b/ |
[V:2]G/^F/G/A/ Bd |
[V:3]B,G, zD |
[V:4]z2 zG,, |
[V:1]c'/b/a/g/ ^f/d/e/f/ |
[V:2]D3 d |
[V:3]A,B, CB,/A,/ |
[V:4]^F,,G,, A,,C, |
[V:1]g/a/b/a/ g/^f/e/d/ |
[V:2]D3 B |
[V:3]G,G zG |
[V:4]B,,G,, zG, |
[V:1]^c/b/a/^g/ a/=c/d/c/ |
[V:2]E2 zA |
[V:3]A2 zD |
[V:4]A,2 z^F, |
[V:1]B/g/b/g/ A/^f/a/f/ |
[V:2]BG ^Fz |
[V:3]G2 zB |
[V:4]G,2 z^D, |
[V:1]G/e/g/e/ F/d/f/d/ |
[V:2]zE Dz |
[V:3]B,2 zG |
[V:4]E,2 zB,, |
[V:1]E/c/e/c/ D/B/d/B/ |
[V:2]zC B,z |
[V:3]G,2 zE |
[V:4]C,2 z^G,, |
[V:1]E/c/E/c/ _E/c/E/c/ |
[V:2]zE AA |
[V:3]E,2 zC |
[V:4]A,,2 G,,2 |
[V:1]D/E/^F/G/ A/B/c/d/ |
[V:2]A4 |
[V:3]D,4 |
[V:4]^F,,2 z/D,/E,/^F,/ |
[V:1]B2 zG |
[V:2]B2 z2 |
[V:3]G,2 zD |
[V:4]G,/A,/B,/C/ D/B,/A,/B,/ |
[V:1]^FG Ac |
[V:2]z4 |
[V:3]D,3 D |
[V:4]C/B,/A,/G,/ ^F,/D,/E,/F,/ |
[V:1]B2 zg |
[V:2]z2 zd |
[V:3]B,G, zD |
[V:4]G,/A,/B,/C/ D/B,/A,/B,/ |
[V:1]^fg ac' |
[V:2]AB cB/A/ |
[V:3]D,3 D |
[V:4]C/B,/A,/G,/ ^F,/D,/E,/F,/ |
[V:1]b^f g^d |
[V:2]BB EG |
[V:3]G,B,2 C |
[V:4]G,/^F,/E,/^D,/ E,/=D,/C,/B,,/ |
[V:1]eB c/B/A/G/ |
[V:2]CE2 E |
[V:3]z^G, A,C |
[V:4]C,/B,,/A,,/^G,,/ A,,/=G,,/^F,,/E,,/ |
[V:1]^F/G/A/G/ F/E/D/C/ |
[V:2]A^F zA, |
[V:3]C2 z2 |
[V:4]D,,3 ^F,, |
[V:1]B,/G,/D/G,/ E/G,/^F/G,/ |
[V:2]B,B, CA, |
[V:3]D,2 z2 |
[V:4]G,,2 z2 |
[V:1]G/G,/D/G,/ E/G,/^F/G,/ |
[V:2]B,B, CA, |
[V:3]D,2 z2 |
[V:4]G,,2 z2 |
[V:1]G/^F/A/G/ B/A/c/B/ |
[V:2]B,C DE |
[V:3]G,4- |
[V:4]G,,2 z2 |
[V:1]d/c/e/d/ f/d/f/d/ |
[V:2]FG AB |
[V:3]G,4 |
[V:4]z4 |
[V:1]^d/e/d/e/ ^f/g/e/c/ |
[V:2]c2 zG |
[V:3]C,2 zC |
[V:4]C,2 zC, |
[V:1]B/d/B/G/ A/c/A/^F/ |
[V:2]GG ^FF |
[V:3]DD A,A, |
[V:4]D,D, D,D, |
[V:1]G2 z2 |
[V:2]Gd ^cd |
[V:3]B,B ^AB |
[V:4]G,,/G,/G,,/G,/ G,,/G,/G,,/G,/ |
[V:1]z4 |
[V:2]^de2 =d- |
[V:3]Bc2 B- |
[V:4]G,,/G,/G,,/G,/ G,,/G,/G,,/G,/ |
[V:1]z4 |
[V:2]dc2 B |
[V:3]BA2 G |
[V:4]G,,/G,/G,,/G,/ G,,/G,/G,,/G,/ |
[V:1]zc' bc' |
[V:2]AA AA |
[V:3]^FF FF |
[V:4]G,,4- |
[V:1]^c'd'2 =c'- |
[V:2]AA AA |
[V:3]^FF FF |
[V:4]G,,4- |
[V:1]c'b2 a |
[V:2]AA AA |
[V:3]^FF FF |
[V:4]G,,4 |
[V:1]g2 z2 |
[V:2]Bd ^cd |
[V:3]GB ^AB |
[V:4]G,,/G,/G,,/G,/ G,,/G,/G,,/G,/ |
[V:1]z4 |
[V:2]^de2 =d- |
[V:3]Bc2 B- |
[V:4]G,,/G,/G,,/G,/ G,,/G,/G,,/G,/ |
[V:1]z4 |
[V:2]dc2 B |
[V:3]BA2 G |
[V:4]G,,/G,/G,,/G,/ G,,/G,/G,,/G,/ |
[V:1]zc' bc' |
[V:2]AA AA |
[V:3]^FF FF |
[V:4]G,,4- |
[V:1]^c'd'2 =c'- |
[V:2]AA AA |
[V:3]^FF FF |
[V:4]G,,4- |
[V:1]c'b2 a |
[V:2]AA AA |
[V:3]^FF FF |
[V:4]G,,4- |
[V:1]gg ^fg |
[V:2]BG ^FG |
[V:3]GE ^DE |
[V:4]G,,E, ^D,E, |
[V:1]fe2 ^d- |
[V:2]FE2 ^D- |
[V:3]A,2 B,2 |
[V:4]A,2 B,2 |
[V:1]de2 c/A/ |
[V:2]DE2 E/C/ |
[V:3]C2 A,2 |
[V:4]C2 C,2 |
[V:1]G2 A/G/A/B/ |
[V:2]B,2 C/B,/C/D/ |
[V:3]D2 ^F,2 |
[V:4]D,D, D,D, |
[V:1][G,3G3] d |
[V:2]B,3 D |
[V:3][D,4-B,4] |
[V:4][G,,4-D,4] |
[V:1]^cd ed |
[V:2]^CD ED |
[V:3][D,4B,4-] |
[V:4][G,,4D,4-] |
[V:1]BA/B/ Gg |
[V:2]B,A,/B,/ G,G |
[V:3][D,4B,4-] |
[V:4][G,,4D,4-] |
[V:1]^f=f e_e |
[V:2]^F=F E_E |
[V:3][D,4B,4-] |
[V:4][G,,4D,4-] |
[V:1]d/e/d/^c/ dd |
[V:2]D/E/D/^C/ DD |
[V:3][D,4B,4-] |
[V:4][G,,4D,4-] |
[V:1]^cd ed |
[V:2]^CD ED |
[V:3][D,4B,4-] |
[V:4][G,,4D,4-] |
[V:1]BA/B/ GB |
[V:2]B,A,/B,/ G,D |
[V:3][D,4B,4] |
[V:4][G,,4D,4-] |
[V:1]Ac DE/^F/ |
[V:2][D4C4] |
[V:3][^F,4A,4] |
[V:4][G,,4D,4-] |
[V:1]G^G AB |
[V:2][DB,]^G, A,B, |
[V:3]G,4 |
[V:4][G,,4D,4-] |
[V:1]Ac DE/^F/ |
[V:2][D4C4] |
[V:3][^F,4A,4] |
[V:4][G,,4D,4] |
[V:1][G,3G3] B |
[V:2][B,4D4] |
[V:3]G,4 |
[V:4][G,,D,][G,,2D,2] [G,,D,] |
[V:1]Ac DE/^F/ |
[V:2][C4D4] |
[V:3][^F,4A,4] |
[V:4][G,,4-D,4] |
[V:1]G^G AB |
[V:2][DB,]^G, A,B, |
[V:3]G,4 |
[V:4][G,,4D,4] |
[V:1]Ac DE/^F/ |
[V:2][C4D4] |
[V:3][^F,4A,4] |
[V:4][D,G,,][G,,2D,2] [D,G,,] |
[V:1]Gz [BD]z |
[V:2][DB,]z [DB,]z |
[V:3]G,z B,z |
[V:4][D,G,,]z [D,G,,]z |
[V:1][B,2G2] zz |
[V:2][D2B,2] zz |
[V:3][B,2D,2] zz |
[V:4][D,2G,,2] zG, |
[V:1]z4 |
[V:2]z4 |
[V:3]z2 z/D/E/^F/ |
[V:4]^F,G, A,C |
[V:1]z4 |
[V:2]z2 zD |
[V:3]G/A/B/c/ d/B/A/B/ |
[V:4]B,G, zG, |
[V:1]z4 |
[V:2]A,B, CB,/A,/ |
[V:3]c/B/A/G/ ^F/D/E/F/ |
[V:4]^F,G, A,C |
[V:1]z4 |
[V:2]B,3 D |
[V:3]G/A/B/c/ d/c/B/A/ |
[V:4]B,G,2 F, |
[V:1]z4 |
[V:2]D2 B,E |
[V:3]^G/A/B/A/ G/E/D/B,/ |
[V:4]E,2 z/E,/^F,/^G,/ |
[V:1]z4 |
[V:2]E2 zA |
[V:3]CA, zE |
[V:4]A,/B,/C/D/ E/C/B,/C/ |
[V:1]z4 |
[V:2]^GA Bd |
[V:3]B,C DC/B,/ |
[V:4]D/C/B,/A,/ ^G,/E,/^F,/G,/ |
[V:1]z4 |
[V:2]cA zA |
[V:3]C2 ze |
[V:4]A,/B,/C/D/ E/C/B,/C/ |
[V:1]z4 |
[V:2]^GA Bd |
[V:3]Bc dc/B/ |
[V:4]D/C/B,/A,/ ^G,/E,/^F,/G,/ |
[V:1]z4 |
[V:2]c/B/c/d/ e/A/B/^c/ |
[V:3]AE ^CD/E/ |
[V:4]A,3 G, |
[V:1]z4 |
[V:2]d/e/f/g/ a/f/e/f/ |
[V:3]F2 zD |
[V:4]F,D, z2 |
[V:1]z4 |
[V:2]g/f/e/d/ ^c/A/B/c/ |
[V:3]^CD EG |
[V:4]z4 |
[V:1]z2 zA |
[V:2]d/e/f/g/ a/f/e/f/ |
[V:3]FD zD |
[V:4]z4 |
[V:1]EF GF/E/ |
[V:2]g/f/e/d/ ^c/A/B/c/ |
[V:3]^CD EG |
[V:4]z4 |
[V:1]F2 z2 |
[V:2]d/e/f/g/ a/f/e/f/ |
[V:3]F4 |
[V:4]D,4 |
[V:1]z2 z/c/d/e/ |
[V:2]e/f/g/a/ _b/g/e/_B/ |
[V:3][G4_B,4] |
[V:4]C,4 |
[V:1]f/g/a/_b/ c'/a/g/a/ |
[V:2]Ac cc |
[V:3]C2 zc |
[V:4]F,2 zF, |
[V:1]_b/a/g/f/ e/c/d/e/ |
[V:2]c4 |
[V:3]GA _BA/G/ |
[V:4]E,F, G,_B, |
[V:1]f/g/a/_b/ c'/a/g/a/ |
[V:2]cA2 c |
[V:3]F2 zF |
[V:4]A,F, z2 |
[V:1]_b/a/g/f/ e/c/d/e/ |
[V:2]GA _BA/G/ |
[V:3]EF G_B |
[V:4]z4 |
[V:1]f/g/a/_b/ c'/b/a/g/ |
[V:2]Ac2 c |
[V:3]A2 G2 |
[V:4]F,2 _E,2 |
[V:1]^f/g/f/e/ d/c'/_b/a/ |
[V:2]c4 |
[V:3]A4 |
[V:4]D,2 ^F,2 |
[V:1]g/a/_b/c'/ d'/c'/=b/a/ |
[V:2]_Bd2 d |
[V:3]D2 A2 |
[V:4]G,2 F,2 |
[V:1]^g/a/g/^f/ e/d'/c'/b/ |
[V:2]d4 |
[V:3]B4 |
[V:4]E,2 ^G,2 |
[V:1]c'/d'/c'/b/ a/c'/b/a/ |
[V:2]c2 ^d2 |
[V:3]E2 A2 |
[V:4]A,2 F,2 |
[V:1]^g/a/g/^f/ e/=f/e/d/ |
[V:2]e2 ^G2 |
[V:3]B2 DB, |
[V:4]E,4- |
[V:1]c/d/c/B/ A/c/B/A/ |
[V:2]A2 ^D2 |
[V:3]C4 |
[V:4]E,4- |
[V:1]^G/A/G/^F/ E/=F/E/D/ |
[V:2]E2- E/F/E/D/ |
[V:3]E2- E/F/E/D/ |
[V:4]E,2- E,/F,/E,/D,/ |
[V:1]C/D/C/B,/ A,/C/B,/A,/ |
[V:2]C/D/C/B,/ A,/C/B,/A,/ |
[V:3]C/D/C/B,/ A,/C/B,/A,/ |
[V:4]C,/D,/C,/B,,/ A,,/C,/B,,/A,,/ |
[V:1]E2 z2 |
[V:2]EE ^DE |
[V:3]EC B,C |
[V:4]E,,E, E,,E, |
[V:1]z4 |
[V:2]EF2 E |
[V:3]^CD2 =C- |
[V:4]E,,E, E,,E, |
[V:1]z4 |
[V:2]ED2 ^C |
[V:3]CB,2 ^A, |
[V:4]E,,E, E,,E, |
[V:1]z4 |
[V:2]DD ^CD |
[V:3]B,B, ^A,B, |
[V:4]E,,E, E,,E, |
[V:1]z4 |
[V:2]^DE2 =D- |
[V:3]B,C2 B,- |
[V:4]E,,E, E,,E, |
[V:1]z4 |
[V:2]DC2 B, |
[V:3]B,A,2 ^G, |
[V:4]E,,E, E,,E, |
[V:1]ze ^de |
[V:2]Cc Bc |
[V:3]A,2 z2 |
[V:4]E,,4- |
[V:1]ef2 e- |
[V:2]^cd2 =c- |
[V:3]zA, ^G,A, |
[V:4]E,,4- |
[V:1]ed2 ^c |
[V:2]cB2 ^A |
[V:3]B,2 F2 |
[V:4]E,,4- |
[V:1]dd ^cd |
[V:2]BB ^AB |
[V:3]E2 z2 |
[V:4]E,,4- |
[V:1]^de2 =d- |
[V:2]Bc2 B- |
[V:3]z^G, ^F,G, |
[V:4]E,,4- |
[V:1]dc2 B |
[V:2]BA2 ^G |
[V:3]A,2 B,2 |
[V:4]E,,4 |
[V:1]c4 |
[V:2]AA ^GA |
[V:3]A,F EF |
[V:4]A,,4- |
[V:1]^c2 d2 |
[V:2]G_B2 A- |
[V:3]EG2 F- |
[V:4]A,,4- |
[V:1]e2 f2 |
[V:2]AG2 F- |
[V:3]FE2 D- |
[V:4]A,,3 _A,, |
[V:1]c4 |
[V:2]FF EF |
[V:3]DD ^CD |
[V:4]G,,4- |
[V:1]B2 c2 |
[V:2]G_A2 G- |
[V:3]EF2 E- |
[V:4]G,,4- |
[V:1]d2 e2- |
[V:2]GF2 E |
[V:3]ED2 C- |
[V:4]G,,4 |
[V:1]eA dc |
[V:2]A4 |
[V:3]CF/E/ DD |
[V:4]F,,3 ^F,, |
[V:1]Bc df |
[V:2]G2 zd |
[V:3]D2 zG |
[V:4]G,,2 zB,, |
[V:1]ed cg |
[V:2]c2 zE |
[V:3]G,2 z2 |
[V:4]C,2 z2 |
[V:1]fe dc |
[V:2]AG F^F |
[V:3]z4 |
[V:4]z4 |
[V:1]Be dc |
[V:2]Gc BE |
[V:3]z2 zG |
[V:4]z2 zC, |
[V:1]Bc df |
[V:2]D2 zd |
[V:3]G,2 zG |
[V:4]G,2 zB,, |
[V:1]ed c^g |
[V:2]c2 zE |
[V:3]G,2 z2 |
[V:4]C,2 z2 |
[V:1]ag fg |
[V:2]F^c dB |
[V:3]z4 |
[V:4]z4 |
[V:1]ef dG |
[V:2]cF GD |
[V:3]z2 zB, |
[V:4]z2 zF, |
[V:1]cB c^c |
[V:2]E2 z_B |
[V:3]C2 zE |
[V:4]E,2 zG, |
[V:1]de fd |
[V:2]A2 zA |
[V:3]F2 zF |
[V:4]F,2 zF, |
[V:1]Bc B/c/d/B/ |
[V:2]Fz Fz |
[V:3]Dz Dz |
[V:4]G,z G,z |
[V:1]ce cc' |
[V:2]E2 zc |
[V:3]E2 z2 |
[V:4]C,2 z2 |
[V:1]e3 f |
[V:2]E3 F |
[V:3]zC ^G,A, |
[V:4]zC, ^G,,A,, |
[V:1]^fg gc' |
[V:2]^FG Gc |
[V:3]E,4 |
[V:4]E,,4 |
[V:1]e3 f |
[V:2]E3 F |
[V:3]zC ^G,A, |
[V:4]zC, ^G,,A,, |
[V:1]^fg gz |
[V:2]^FG Gz |
[V:3]E,2 zC |
[V:4]E,,2 zE, |
[V:1]^ga az |
[V:2]^GA Az |
[V:3]C2 zC |
[V:4]F,2 zF, |
[V:1]a_b bz |
[V:2]A_B Bz |
[V:3]C2 zC |
[V:4]E,2 zE, |
[V:1]_ba az |
[V:2]_BA Az |
[V:3]C2 zC |
[V:4]F,2 zF, |
[V:1]bc' c'z |
[V:2]Bc cz |
[V:3]_E2 zE |
[V:4]^F,2 zF, |
[V:1]c'b bc' |
[V:2]cB Bc |
[V:3]_ED DE |
[V:4]G,2 z^F, |
[V:1]c'b bG |
[V:2]cB Bz |
[V:3]_ED Dz |
[V:4]G,2 z2 |
[V:1]B,3 C |
[V:2]z4 |
[V:3]zD, F,z |
[V:4]zF, G,,2- |
[V:1]^C2 DG |
[V:2]z4 |
[V:3]zD, B,z |
[V:4]G,,F, G,,2- |
[V:1]C3 D |
[V:2]z4 |
[V:3]zC, E,z |
[V:4]G,,E, G,,2- |
[V:1]^D2 EG |
[V:2]z4 |
[V:3]zC, Cz |
[V:4]G,,E, G,,2- |
[V:1]D3 E |
[V:2]zB, DC |
[V:3]zG, F,E, |
[V:4]G,,B,, G,,G,, |
[V:1]G4 |
[V:2]B,4- |
[V:3]D,4- |
[V:4]G,,4- |
[V:1]F3 z |
[V:2]B,3 C |
[V:3]D,3 z |
[V:4]G,,3 z |
[V:1]z2 z/G/A/B/ |
[V:2]B,C DF |
[V:3]z4 |
[V:4]z4 |
[V:1]c/d/e/f/ g/e/d/e/ |
[V:2]EC zG |
[V:3]z2 zC |
[V:4]z4 |
[V:1]f/e/d/c/ B/G/A/B/ |
[V:2]DE FE/D/ |
[V:3]B,C DF |
[V:4]z4 |
[V:1]c/d/e/f/ g/e/d/e/ |
[V:2]C/B,/C/D/ EG |
[V:3]EC zG |
[V:4]z2 zC, |
[V:1]f/e/d/c/ B/G/A/B/ |
[V:2]G,3 G |
[V:3]DE FE/D/ |
[V:4]B,,C, D,F, |
[V:1]c/d/e/d/ c/B/A/G/ |
[V:2]G,2 zE |
[V:3]CC zC |
[V:4]E,C, zC, |
[V:1]^F/e/d/^c/ d/=F/G/F/ |
[V:2]A,2 zD |
[V:3]D2 zG, |
[V:4]D,2 zB,, |
[V:1]E/c/e/c/ F/d/f/d/ |
[V:2]EE FF |
[V:3]CC DD |
[V:4]C,C, C,C, |
[V:1]G/e/g/e/ A/f/a/f/ |
[V:2]GG AA |
[V:3]EE FF |
[V:4]C,C, C,C, |
[V:1]_B/g/_b/g/ b/g/b/g/ |
[V:2]_B/e/g/e/ g/e/g/e/ |
[V:3]GE CE, |
[V:4]C,C, C,C, |
[V:1]A/g/a/g/ a/g/a/g/ |
[V:2]A/e/g/e/ g/e/g/e/ |
[V:3]GE ^CA, |
[V:4]^C,C, C,C, |
[V:1]A/f/a/f/ a/f/a/f/ |
[V:2]A/d/f/d/ f/d/f/d/ |
[V:3]FD A,F, |
[V:4]D,D, D,D, |
[V:1]d/f/g/f/ d/f/g/f/ |
[V:2]G/d/f/d/ G/d/f/d/ |
[V:3]FD B,G, |
[V:4]B,,B,, B,,B,, |
[V:1]c/e/g/e/ g/e/g/e/ |
[V:2]G/c/e/c/ e/c/e/c/ |
[V:3]EC G,E, |
[V:4]C,C, C,C, |
[V:1]^f/a/c'/a/ f/c'/a/f/ |
[V:2]^f/c/A/c/ f/a/f/c/ |
[V:3]c^F AD |
[V:4]A,,A,, A,,A,, |
[V:1]g/^f/g/a/ g/=f/e/d/ |
[V:2]B2 z2 |
[V:3]G2 z/B,/C/D/ |
[V:4]G,,2 z/G,,/A,,/B,,/ |
[V:1]c2 zc |
[V:2]z4 |
[V:3]E2 zG |
[V:4]C,/D,/E,/F,/ G,/E,/D,/E,/ |
[V:1]Bc df |
[V:2]z4 |
[V:3]G,3 G |
[V:4]F,/E,/D,/C,/ B,,/G,,/A,,/B,,/ |
[V:1]e2 zc' |
[V:2]z2 zg |
[V:3]EC zG |
[V:4]C,/D,/E,/F,/ G,/E,/D,/E,/ |
[V:1]bc' d'f' |
[V:2]de fe/d/ |
[V:3]G,3 G |
[V:4]F,/E,/D,/C,/ B,,/G,/A,/B,/ |
[V:1]e'b c'^g |
[V:2]ee Ac |
[V:3]CE2 F |
[V:4]C/B,/A,/^G,/ A,/=G,/F,/E,/ |
[V:1]ae f/e/d/c/ |
[V:2]FA2 A |
[V:3]z^C DF |
[V:4]F,/E,/D,/^C,/ D,/=C,/B,,/A,,/ |
[V:1]B/c/d/c/ B/A/G/F/ |
[V:2]dB zD |
[V:3]F2 zG |
[V:4]G,,3 B,, |
[V:1]E/G/c/B/ A/a/g/f/ |
[V:2]EG Ad |
[V:3]GC CA |
[V:4]C,E, F,F, |
[V:1]e/g/e/c/ d/f/d/B/ |
[V:2]cc BB |
[V:3]GG FF |
[V:4]G,G, G,,G,, |
[V:1]c2 z2 |
[V:2]cG ^FG |
[V:3]EE ^DE |
[V:4]C,,/C,/C,,/C,/ C,,/C,/C,,/C,/ |
[V:1]z4 |
[V:2]^GA2 =G- |
[V:3]EF2 E- |
[V:4]C,,/C,/C,,/C,/ C,,/C,/C,,/C,/ |
[V:1]z4 |
[V:2]GF2 E |
[V:3]ED2 C |
[V:4]C,,/C,/C,,/C,/ C,,/C,/C,,/C,/ |
[V:1]zf ef |
[V:2]DD DD |
[V:3]B,B, B,B, |
[V:4]C,,4- |
[V:1]^fg2 =f- |
[V:2]DD DD |
[V:3]B,B, B,B, |
[V:4]C,,4- |
[V:1]fe2 d |
[V:2]DD DD |
[V:3]B,B, B,B, |
[V:4]C,,4 |
[V:1]c2 z2 |
[V:2]EG ^FG |
[V:3]CE ^DE |
[V:4]C,,/C,/C,,/C,/ C,,/C,/C,,/C,/ |
[V:1]z4 |
[V:2]^GA2 =G- |
[V:3]EF2 E- |
[V:4]C,,/C,/C,,/C,/ C,,/C,/C,,/C,/ |
[V:1]z4 |
[V:2]GF2 E |
[V:3]ED2 C |
[V:4]C,,/C,/C,,/C,/ C,,/C,/C,,/C,/ |
[V:1]zf ef |
[V:2]DD DD |
[V:3]B,B, B,B, |
[V:4]C,,4- |
[V:1]^fg2 =f- |
[V:2]DD DD |
[V:3]B,B, B,B, |
[V:4]C,,4- |
[V:1]fe2 d |
[V:2]DD DD |
[V:3]B,B, B,B, |
[V:4]C,,4- |
[V:1]c/c'/c/c'/ c/c'/c/c'/ |
[V:2]EG ^FG |
[V:3]CE ^DE |
[V:4]C,,z3 |
[V:1]c/c'/c/c'/ c/c'/c/c'/ |
[V:2]^GA2 =G |
[V:3]EF2 E |
[V:4]z4 |
[V:1]c/c'/c/c'/ c/c'/c/c'/ |
[V:2]A_B2 A- |
[V:3]FG2 F- |
[V:4]z4 |
[V:1]c/c'/c/c'/ c/c'/c/c'/ |
[V:2]AG2 _B |
[V:3]FE2 G |
[V:4]z2 zC, |
[V:1]cc' bc' |
[V:2]AA ^GA |
[V:3]C4- |
[V:4]F,4- |
[V:1]aa ^ga |
[V:2]F2 A,2 |
[V:3]C2 ^C2 |
[V:4]F,2 E,2 |
[V:1]gf2 e- |
[V:2]A,4 |
[V:3]D2 ^C2 |
[V:4]D,2 E,2 |
[V:1]ed2 c |
[V:2]A,4 |
[V:3]D4- |
[V:4]F,2 ^F,2 |
[V:1]Bg ^fg |
[V:2]B,2 z2 |
[V:3]D2 z2 |
[V:4]G,,4- |
[V:1]^ga2 =g- |
[V:2]zE DE |
[V:3]zC B,^C |
[V:4]G,,4- |
[V:1]gf2 e- |
[V:2]F2 G2 |
[V:3]D2 E2 |
[V:4]G,,4- |
[V:1]ed ef |
[V:2]A2 GF |
[V:3]F2 ED |
[V:4]G,,4- |
[V:1]^fg2 =f- |
[V:2]ED CD |
[V:3]CB, A,B, |
[V:4]G,,4- |
[V:1]fe2 d- |
[V:2]E2 F2 |
[V:3]C2 D2 |
[V:4]G,,4- |
[V:1]dc de |
[V:2]G2 FE |
[V:3]E2 DC |
[V:4]G,,4- |
[V:1]g^f c'f |
[V:2]DC2 _E- |
[V:3]B,A,2 C- |
[V:4]G,,4- |
[V:1]ag z2 |
[V:2]ED z2 |
[V:3]CB, A,B, |
[V:4]G,,G, ^F,G, |
[V:1]zc' b^c' |
[V:2]ze de |
[V:3]B,C2 _B,- |
[V:4]^G,A,2 =G,- |
[V:1]d'2 e'2 |
[V:2]f2 g2 |
[V:3]B,A,2 G,- |
[V:4]G,F,2 E,- |
[V:1]f'2 e'd' |
[V:2]a2 gf |
[V:3]G,F, G,A, |
[V:4]E,D, E,F, |
[V:1]c'b ab |
[V:2]ed cd |
[V:3]A,B,2 _A,- |
[V:4]^F,G,2 =F,- |
[V:1]c'2 d'2 |
[V:2]e2 f2 |
[V:3]A,G,2 F,- |
[V:4]F,E,2 D,- |
[V:1]e'2 d'c' |
[V:2]g2 fe |
[V:3]F,E, F,G, |
[V:4]D,C, D,E, |
[V:1]ba f'/d'/f'/d'/ |
[V:2]dc z2 |
[V:3]A,2 z2 |
[V:4]F,2 z2 |
[V:1]b>d' f'/d'/f'/d'/ |
[V:2][d2f2] z2 |
[V:3][B2D2] z2 |
[V:4]G,2 z2 |
[V:1]b>d' f'/d'/f'/d'/ |
[V:2][f2d2] z2 |
[V:3][B2D2] z2 |
[V:4]G,2 z2 |
[V:1]b/d'/f'/d'/ b/d'/f'/d'/ |
[V:2][df]z [fd]z |
[V:3][BD]z [BD]z |
[V:4]G,z G,z |
[V:1]b2 zc |
[V:2][f2d2] zz |
[V:3][B2D2] zz |
[V:4]G,2 zz |
[V:1]Bc df |
[V:2]z2 zC |
[V:3]z2 zA, |
[V:4]z4 |
[V:1]e2 zB |
[V:2]B,C DF |
[V:3]^G,A, B,D |
[V:4]z4 |
[V:1]AB ce |
[V:2]E2 zB, |
[V:3]C2 zG, |
[V:4]z4 |
[V:1]d2 zA |
[V:2]A,B, C^F |
[V:3]^F,G, A,C |
[V:4]z4 |
[V:1]GA BA |
[V:2]G2 z^F |
[V:3]B,2 z2 |
[V:4]z4 |
[V:1]Bc d^c |
[V:2]GA B^A |
[V:3]z4 |
[V:4]z4 |
[V:1]de ff |
[V:2]Bc dB |
[V:3]z2 zG |
[V:4]z4 |
[V:1]ef g_b |
[V:2]c2 z2 |
[V:3]C2 zF |
[V:4]z2 zD |
[V:1]a2 ze |
[V:2]z2 z^c |
[V:3]EF G_B |
[V:4]^CD EG |
[V:1]de fa |
[V:2]d2 z2 |
[V:3]A2 zE |
[V:4]F2 zC |
[V:1]g2 zd |
[V:2]z2 zB |
[V:3]DE F_A |
[V:4]B,C DF |
[V:1]cd eg |
[V:2]c2 zE |
[V:3]G2 zG |
[V:4]E2 zC, |
[V:1]fe dc |
[V:2]A2 zA |
[V:3]A2 zD |
[V:4]F,2 z^F, |
[V:1]Be dc |
[V:2]D2 zE |
[V:3]D2 zG |
[V:4]G,2 zC |
[V:1]Bc df |
[V:2]FE DB |
[V:3]DE FD |
[V:4]DC B,G, |
[V:1]ed c^g |
[V:2]cG Ec |
[V:3]EB ce |
[V:4]CD EE, |
[V:1]ag fg |
[V:2]A^c dG |
[V:3]ce Ad |
[V:4]F,A, DB, |
[V:1]ef dG |
[V:2]cd BD |
[V:3]GA GB, |
[V:4]CF, G,F, |
[V:1]cB c^c |
[V:2]GD C_B |
[V:3]CG, GE |
[V:4]E,F, E,G, |
[V:1]de fd |
[V:2]AG FA |
[V:3]FG AF |
[V:4]F,E, D,F, |
[V:1]Bc B/c/d/B/ |
[V:2]FE FD |
[V:3]DC DF |
[V:4]G,G,, G,G,, |
[V:1][E3c3] g |
[V:2][G,3E3] G |
[V:3][G,4-E4] |
[V:4][C,,4-G,,4] |
[V:1]^fg ag |
[V:2]^FG AG |
[V:3][G,4E4-] |
[V:4][C,,4G,,4-] |
[V:1]ed/e/ cc' |
[V:2]ED/E/ Cc |
[V:3][G,4E4-] |
[V:4][C,,4G,,4-] |
[V:1]b_b a_a |
[V:2]B_B A_A |
[V:3][G,4E4-] |
[V:4][C,,4G,,4-] |
[V:1]g/a/g/^f/ gg |
[V:2]G/A/G/^F/ GG |
[V:3][G,4E4-] |
[V:4][C,,4G,,4-] |
[V:1]^fg ag |
[V:2]^FG AG |
[V:3][G,4E4-] |
[V:4][C,,4G,,4-] |
[V:1]ed/e/ ce |
[V:2]ED/E/ CE |
[V:3][G,4E4] |
[V:4][C,,4G,,4-] |
[V:1]df GA/B/ |
[V:2][F4G,4] |
[V:3][G,4F,4] |
[V:4][C,,4G,,4-] |
[V:1]c^c de |
[V:2][EG,]^C DE |
[V:3][E,4G,4] |
[V:4][C,,4G,,4-] |
[V:1]df GA/B/ |
[V:2][G,4F4] |
[V:3][G,4F,4] |
[V:4][C,,4G,,4] |
[V:1][E3c3] e |
[V:2][EG,][G,2E2] [EG,] |
[V:3][G,E,][E,2G,2] [E,G,] |
[V:4][G,,C,,][G,,2C,,2] [G,,C,,] |
[V:1]df GA/B/ |
[V:2][FG,][G,2F2] [G,F] |
[V:3][F,G,][F,2G,2] [G,F,] |
[V:4][G,,4-C,,4] |
[V:1]c^c de |
[V:2][G,E]^C DE |
[V:3][E,G,][G,2E,2] [E,G,] |
[V:4][G,,4C,,4] |
[V:1]df GA/B/ |
[V:2][FG,][G,2F2] [FG,] |
[V:3][G,F,][F,2G,2] [F,G,] |
[V:4][G,,C,,][G,,2C,,2] [G,,C,,] |
[V:1]cz [ec]z |
[V:2][G,E]z [cE]z |
[V:3][E,G,]z [G,E,]z |
[V:4][G,,C,,]z [C,C,,]z |
[V:1][c2E2G,2] zz |]
[V:2][c2E2] zz |]
[V:3][G,2E,2] zz |]
[V:4][C,2C,,2] zz |]

